Simply-Orange-Circles/scalable/apps/google-drive.svg

<svg xmlns="http://www.w3.org/2000/svg" width="48" height="48" viewBox="0 0 12.7 12.7"><path d="M6.34.07A6.29 6.29 0 0 0 .05 6.36a6.29 6.29 0 0 0 6.3 6.29 6.29 6.29 0 0 0 6.28-6.3A6.29 6.29 0 0 0 6.34.08zm-.01.94a5.4 5.4 0 0 1 5.4 5.4 5.4 5.4 0 0 1-5.4 5.41 5.4 5.4 0 0 1-5.41-5.4A5.4 5.4 0 0 1 6.32 1z" fill="#ff7f2a"/><g fill-rule="evenodd"><path d="M3.38 9.9h5.94l1.49-2.57H4.86L3.38 9.91z" opacity=".75" fill="#3176d5"/><path d="M4.86 2.18l2.98 5.15h2.97L7.84 2.18z" opacity=".75" fill="#f3ba3c"/><path d="M4.86 2.18L1.9 7.33l1.49 2.58 2.97-5.15z" opacity=".75" fill="#20a869"/></g></svg>

<?xml version="1.0" encoding="UTF-8" standalone="no"?>
<svg
   xmlns:dc="http://purl.org/dc/elements/1.1/"
   xmlns:cc="http://creativecommons.org/ns#"
   xmlns:rdf="http://www.w3.org/1999/02/22-rdf-syntax-ns#"
   xmlns:svg="http://www.w3.org/2000/svg"
   xmlns="http://www.w3.org/2000/svg"
   xmlns:sodipodi="http://sodipodi.sourceforge.net/DTD/sodipodi-0.dtd"
   xmlns:inkscape="http://www.inkscape.org/namespaces/inkscape"
   width="48"
   height="48"
   viewBox="0 0 12.7 12.7"
   version="1.1"
   id="svg12"
   sodipodi:docname="google-drive.svg"
   inkscape:version="0.92.4 (5da689c313, 2019-01-14)">
  <metadata
     id="metadata18">
    <rdf:RDF>
      <cc:Work
         rdf:about="">
        <dc:format>image/svg+xml</dc:format>
        <dc:type
           rdf:resource="http://purl.org/dc/dcmitype/StillImage" />
        <dc:title></dc:title>
      </cc:Work>
    </rdf:RDF>
  </metadata>
  <defs
     id="defs16" />
  <sodipodi:namedview
     pagecolor="#ffffff"
     bordercolor="#666666"
     borderopacity="1"
     objecttolerance="10"
     gridtolerance="10"
     guidetolerance="10"
     inkscape:pageopacity="0"
     inkscape:pageshadow="2"
     inkscape:window-width="1087"
     inkscape:window-height="480"
     id="namedview14"
     showgrid="false"
     inkscape:zoom="4.9166667"
     inkscape:cx="2.1355932"
     inkscape:cy="24"
     inkscape:window-x="0"
     inkscape:window-y="25"
     inkscape:window-maximized="0"
     inkscape:current-layer="svg12" />
  <path
     d="M 6.34,0.07 A 6.29,6.29 0 0 0 0.05,6.36 6.29,6.29 0 0 0 6.35,12.65 6.29,6.29 0 0 0 12.63,6.35 6.29,6.29 0 0 0 6.34,0.08 Z M 6.33,1.01 a 5.4,5.4 0 0 1 5.4,5.4 5.4,5.4 0 0 1 -5.4,5.41 A 5.4,5.4 0 0 1 0.92,6.42 5.4,5.4 0 0 1 6.32,1 Z"
     id="path2"
     inkscape:connector-curvature="0"
     style="fill:#ff7f2a" />
  <g
     id="g10"
     style="fill-rule:evenodd">
    <path
       d="M 3.38,9.9 H 9.32 L 10.81,7.33 H 4.86 L 3.38,9.91 Z"
       id="path4"
       inkscape:connector-curvature="0"
       style="opacity:0.75;fill:#3176d5" />
    <path
       d="m 4.86,2.18 2.98,5.15 h 2.97 L 7.84,2.18 Z"
       id="path6"
       inkscape:connector-curvature="0"
       style="opacity:0.75;fill:#f3ba3c" />
    <path
       d="M 4.86,2.18 1.9,7.33 3.39,9.91 6.36,4.76 Z"
       id="path8"
       inkscape:connector-curvature="0"
       style="opacity:0.75;fill:#20a869" />
  </g>
</svg>
